components/AnnouncementBar/logos/color-folio.svg

<svg width="164" height="90" viewBox="0 0 164 90" fill="none" xmlns="http://www.w3.org/2000/svg">
<path d="M109.181 25.4532C107.719 25.4532 103.134 25.0594 104.456 19.3782C104.653 18.5344 105.75 14.0626 110.475 14.1188C114.834 14.1469 116.606 16.9876 115.875 20.2782C115.453 22.1907 114.103 25.4251 109.181 25.4532ZM163.069 23.4844C163.434 27.6188 159.609 43.5094 149.147 40.8094C148.219 52.2563 137.756 66.6282 123.272 63.7594C120.133 63.2038 117.425 61.2324 115.931 58.4157C112.781 61.5657 109.069 64.6032 105.722 65.7844C98.9719 68.1751 94.3875 65.9251 92.5875 62.1282C90.228 64.7391 87.2903 66.7618 84.0094 68.0344C73.5188 71.7469 68.5687 64.4344 70.5375 57.0657C70.9594 55.5188 71.9438 52.5376 73.2375 48.6844C71.6344 49.4438 69.7781 49.6688 67.6125 49.1344C66.7125 60.5532 56.25 74.9251 41.7656 72.0563C34.8187 70.7063 30.9375 63.9001 33.8063 53.2126C34.8188 49.5563 36.3375 46.0969 38.3906 43.1438C34.875 43.4251 29.4187 43.8751 23.4844 44.5219C18.8438 55.8282 13.9219 70.2844 9.28125 86.5688C8.80531 88.1513 7.53276 89.3673 5.93026 89.7708C4.32776 90.1743 2.63111 89.706 1.4625 88.5376C0.2957 87.3547 -0.144783 85.6358 0.309375 84.0376C2.1375 77.6813 7.00312 61.2563 12.9656 45.8719L9.30937 46.4344C5.79375 46.9969 4.3875 44.3251 4.10625 42.7219C3.825 40.8094 4.75312 38.0532 7.84687 37.5751C10.7437 37.1251 13.7531 36.7313 16.7906 36.3376C19.1597 30.4888 22.1088 24.8921 25.5938 19.6313C31.0781 11.7844 36.9562 8.49381 43.5656 9.50631C52.3687 10.8282 52.5094 21.8813 52.4531 22.7813C52.3125 25.1157 51.6656 27.2813 47.8969 27.5063C45.3656 27.6188 44.55 25.5657 43.9313 22.8094C42.5813 17.0719 39.4312 18.7594 38.1094 19.5469C35.2687 21.2907 31.6406 26.7751 27.6469 35.1282C35.3813 34.3688 41.3156 33.9188 41.7938 33.8907C43.4813 33.7782 45.1406 34.6219 46.0125 36.0844C49.0058 34.4198 52.375 33.5485 55.8 33.5532C59.2594 33.5532 61.9875 35.0438 64.4906 37.3782C68.7094 41.2594 75.4594 39.8532 78.7781 33.0188C82.302 23.0305 86.0151 13.1099 89.9156 3.26256C90.8473 0.874801 93.4397 -0.415309 95.9062 0.281309C98.9156 1.18131 99.8719 3.74068 98.8594 6.35631C91.7438 24.5813 82.6875 49.8376 81.5344 54.3938C80.2969 59.4282 82.9969 59.2313 86.2031 57.5719C90.45 55.3501 93.7125 49.8657 94.6406 47.6157C96.6656 41.6813 98.8594 35.6344 100.547 31.7813C102.009 28.4063 105.244 28.6313 106.481 28.9969C109.491 29.8969 110.559 32.2876 109.463 34.8751C107.119 40.5266 105.054 46.2898 103.275 52.1438C101.813 57.0938 104.681 56.9813 107.916 55.2938C110.109 54.1688 112.5 51.9469 114.497 49.8657C114.637 48.1782 114.919 46.5188 115.341 44.9157C118.237 34.2282 125.747 25.3126 137.306 25.2563C140.794 25.2563 144.113 26.9438 146.616 29.2782C151.116 33.4407 157.894 31.3313 160.903 23.2313C161.353 22.0782 162.984 22.1344 163.097 23.4563L163.069 23.4844ZM57.375 50.7938C58.1344 46.1251 55.35 43.0032 52.0594 43.5657C48.4031 44.2407 45.0844 48.0376 43.5375 52.1719C43.2562 52.9876 40.3031 62.1844 45.3375 62.9157C51.7219 63.6469 56.3906 56.8688 57.375 50.7938ZM138.909 42.4688C139.669 37.8001 136.856 34.6782 133.566 35.2407C129.909 35.9157 126.591 39.7407 125.072 43.8751C124.791 44.6626 121.809 53.8876 126.872 54.6188C133.228 55.3219 137.897 48.5719 138.909 42.4688Z" fill="#F26161"/>
</svg>

<svg xmlns="http://www.w3.org/2000/svg" width="164" height="90" viewBox="0 0 164 90">
  <path fill="#F26161" d="M109.181 25.453c-1.462 0-6.047-.394-4.725-6.075.197-.844 1.294-5.315 6.019-5.26 4.359.029 6.131 2.87 5.4 6.16-.422 1.913-1.772 5.147-6.694 5.175Zm53.888-1.969c.365 4.135-3.46 20.025-13.922 17.325-.928 11.447-11.391 25.82-25.875 22.95a10.353 10.353 0 0 1-7.341-5.343c-3.15 3.15-6.862 6.187-10.209 7.368-6.75 2.391-11.334.141-13.134-3.656a22.557 22.557 0 0 1-8.579 5.906c-10.49 3.713-15.44-3.6-13.472-10.968.422-1.547 1.407-4.528 2.7-8.382-1.603.76-3.459.985-5.624.45-.9 11.42-11.363 25.791-25.847 22.922-6.947-1.35-10.828-8.156-7.96-18.843 1.013-3.657 2.532-7.116 4.585-10.07-3.516.282-8.972.732-14.907 1.379-4.64 11.306-9.562 25.762-14.203 42.047a4.697 4.697 0 0 1-7.819 1.969 4.613 4.613 0 0 1-1.153-4.5c1.829-6.357 6.694-22.782 12.657-38.166l-3.657.562c-3.515.563-4.921-2.109-5.203-3.712-.281-1.913.647-4.669 3.74-5.147 2.898-.45 5.907-.844 8.945-1.237a94.474 94.474 0 0 1 8.803-16.707c5.484-7.847 11.362-11.137 17.972-10.125 8.803 1.322 8.943 12.375 8.887 13.275-.14 2.335-.787 4.5-4.556 4.725-2.531.113-3.347-1.94-3.966-4.697-1.35-5.737-4.5-4.05-5.822-3.262-2.84 1.744-6.468 7.228-10.462 15.581 7.734-.76 13.669-1.21 14.147-1.237 1.687-.113 3.347.73 4.219 2.193a20.081 20.081 0 0 1 9.787-2.53c3.46 0 6.188 1.49 8.69 3.824 4.22 3.881 10.97 2.475 14.288-4.36A836.88 836.88 0 0 1 89.916 3.264 4.978 4.978 0 0 1 95.906.28c3.01.9 3.966 3.46 2.953 6.075-7.115 18.225-16.171 43.482-17.325 48.038-1.237 5.034 1.463 4.837 4.67 3.178 4.246-2.222 7.509-7.706 8.437-9.956 2.025-5.935 4.218-11.982 5.906-15.835 1.462-3.375 4.697-3.15 5.934-2.784 3.01.9 4.078 3.29 2.982 5.878a186.997 186.997 0 0 0-6.188 17.269c-1.462 4.95 1.406 4.837 4.641 3.15 2.193-1.125 4.584-3.347 6.581-5.428a28.82 28.82 0 0 1 .844-4.95c2.896-10.688 10.406-19.603 21.965-19.66 3.488 0 6.807 1.688 9.31 4.022 4.5 4.163 11.278 2.053 14.287-6.047.45-1.153 2.081-1.097 2.194.225l-.028.028ZM57.375 50.794c.76-4.669-2.025-7.79-5.316-7.228-3.656.675-6.975 4.472-8.521 8.606-.282.816-3.235 10.012 1.8 10.744 6.384.73 11.053-6.047 12.037-12.122Zm81.534-8.325c.76-4.669-2.053-7.79-5.343-7.228-3.657.675-6.975 4.5-8.494 8.634-.281.788-3.263 10.013 1.8 10.744 6.356.703 11.025-6.047 12.037-12.15Z"/>
</svg>
